out/images/locationIcon.svg

<svg fill="none" height="64" viewBox="0 0 32 32" width="64" xmlns="http://www.w3.org/2000/svg"><path d="m19 28c4-4 8-10.553 8-16 0-6.075-4.925-11-11-11s-11 4.925-11 11c0 9 11 19 11 19m-11 0h22m-6-19c0-2.762-2.238-5-5-5s-5 2.238-5 5 2.238 5 5 5 5-2.238 5-5z" stroke="#d33834" stroke-linecap="round" stroke-linejoin="round" stroke-width="2"/></svg>

<!DOCTYPE svg PUBLIC "-//W3C//DTD SVG 1.1//EN" "http://www.w3.org/Graphics/SVG/1.1/DTD/svg11.dtd">

<!-- Uploaded to: SVG Repo, www.svgrepo.com, Transformed by: SVG Repo Mixer Tools -->
<svg width="64px" height="64px" viewBox="0 0 32 32" fill="none" xmlns="http://www.w3.org/2000/svg">

<g id="SVGRepo_bgCarrier" stroke-width="0"/>

<g id="SVGRepo_tracerCarrier" stroke-linecap="round" stroke-linejoin="round"/>

<g id="SVGRepo_iconCarrier"> <path d="M19 28C23 24 27 17.447 27 12C27 5.925 22.075 1 16 1C9.925 1 5 5.925 5 12C5 21 16 31 16 31M5 31H27M21 12C21 9.238 18.762 7 16 7C13.238 7 11 9.238 11 12C11 14.762 13.238 17 16 17C18.762 17 21 14.762 21 12Z" stroke="#D33834" stroke-width="2" stroke-linecap="round" stroke-linejoin="round"/> </g>

</svg>
